src/assets/home/footer/telegram.svg

<svg width="40" height="40" viewBox="0 0 40 40" fill="none" xmlns="http://www.w3.org/2000/svg">
<path d="M40 20C40 8.9543 31.0457 -3.99656e-07 20 8.31668e-08C8.95431 5.65989e-07 -1.35705e-06 8.95431 -8.74228e-07 20C-3.91405e-07 31.0457 8.95431 40 20 40C31.0457 40 40 31.0457 40 20Z" fill="white"/>
<path d="M13.1992 21.6473L15.5637 28.0573L26.0518 13.4883L13.1992 21.6473Z" fill="#8F6D2C"/>
<path d="M15.8254 23.0703L15.5977 28.1219L21.1346 23.4255L15.8254 23.0703Z" fill="#D8B470"/>
<path d="M28.6175 11.0246L7.94484 18.8799C7.36186 19.1022 7.37542 19.9346 7.96924 20.1326L13.3001 21.933L25.4396 14.0994L15.8245 23.0665L23.311 28.7471C24.0892 29.3382 25.2199 28.9396 25.4558 27.9933L29.5014 11.8082C29.6289 11.2876 29.1191 10.8348 28.6175 11.0246Z" fill="#CB9F4C"/>
</svg>

<svg width="40" height="40" fill="none" xmlns="http://www.w3.org/2000/svg"><path d="M40 20C40 8.954 31.046 0 20 0S0 8.954 0 20s8.954 20 20 20 20-8.954 20-20Z" fill="#fff"/><path d="m13.2 21.647 2.364 6.41 10.488-14.569-12.853 8.16Z" fill="#8F6D2C"/><path d="m15.825 23.07-.227 5.052 5.537-4.697-5.31-.355Z" fill="#D8B470"/><path d="M28.617 11.025 7.945 18.88c-.583.222-.57 1.055.024 1.253l5.331 1.8 12.14-7.834-9.616 8.968 7.487 5.68a1.362 1.362 0 0 0 2.145-.754L29.5 11.808a.668.668 0 0 0-.884-.783Z" fill="#CB9F4C"/></svg>
